;Generated with Cura_SteamEngine 13.06.4
M109 T0 S215.000000
T0
;Sliced at: Sat 14 Sep 2013 00:55:34
;Basic settings: Layer height: 0.1 Walls: 0.8 Fill: 10
;Print time: #P_TIME#
;Filament used: #F_AMNT#m #F_WGHT#g
;Filament cost: #F_COST#
G21        ;metric values
G90        ;absolute positioning
M107       ;start with the fan off
G28 X0 Y0  ;move X/Y to min endstops
G28 Z0     ;move Z to min endstops
G1 Z15.0 F10500 ;move the platform down 15mm
G92 E0                  ;zero the extruded length
G1 F200 E3              ;extrude 3mm of feed stock
G92 E0                  ;zero the extruded length again
G1 F10500
M117 Printing...

;total_layers=199
;LAYER:0
M107
G0 F2700 X92.05 Y86.68 Z0.30
;TYPE:SKIRT
G1 F1140 X94.18 Y84.55 E0.05518
G1 X94.56 Y84.26 E0.06384
G1 X97.17 Y82.76 E0.11903
G1 X97.61 Y82.58 E0.12764
G1 X100.53 Y81.79 E0.18287
G1 X101.00 Y81.73 E0.19156
G1 X104.03 Y81.74 E0.24704
G1 X104.50 Y81.80 E0.25564
G1 X107.39 Y82.58 E0.31049
G1 X107.82 Y82.76 E0.31909
G1 X110.44 Y84.26 E0.37428
G1 X110.81 Y84.55 E0.38293
G1 X112.95 Y86.68 E0.43811
G1 X113.23 Y87.06 E0.44677
G1 X114.74 Y89.67 E0.50196
G1 X114.92 Y90.11 E0.51057
G1 X115.70 Y93.02 E0.56576
G1 X115.77 Y93.49 E0.57442
G1 X115.77 Y96.51 E0.62957
G1 X115.70 Y96.98 E0.63822
G1 X114.92 Y99.89 E0.69342
G1 X114.74 Y100.32 E0.70203
G1 X113.23 Y102.94 E0.75722
G1 X112.95 Y103.31 E0.76587
G1 X110.81 Y105.45 E0.82106
G1 X110.44 Y105.73 E0.82971
G1 X107.82 Y107.24 E0.88490
G1 X107.39 Y107.42 E0.89351
G1 X104.48 Y108.20 E0.94870
G1 X104.01 Y108.27 E0.95736
G1 X100.99 Y108.27 E1.01251
G1 X100.52 Y108.20 E1.02117
G1 X97.61 Y107.42 E1.07636
G1 X97.17 Y107.24 E1.08497
G1 X94.56 Y105.73 E1.14016
G1 X94.18 Y105.45 E1.14882
G1 X92.05 Y103.31 E1.20400
G1 X91.76 Y102.94 E1.21265
G1 X90.26 Y100.32 E1.26784
G1 X90.08 Y99.89 E1.27645
G1 X89.29 Y96.98 E1.33165
G1 X89.23 Y96.51 E1.34030
G1 X89.23 Y93.49 E1.39545
G1 X89.29 Y93.02 E1.40410
G1 X90.08 Y90.11 E1.45930
G1 X90.26 Y89.67 E1.46791
G1 X91.76 Y87.06 E1.52310
G1 X92.05 Y86.68 E1.53175
G0 F2700 X92.35 Y86.95
G1 F1140 X94.45 Y84.85 E1.58600
G1 X94.78 Y84.60 E1.59369
G1 X97.35 Y83.12 E1.64790
G1 X97.74 Y82.96 E1.65558
G1 X100.60 Y82.19 E1.70984
G1 X101.02 Y82.13 E1.71755
G1 X104.00 Y82.14 E1.77209
G1 X104.42 Y82.19 E1.77972
G1 X107.26 Y82.96 E1.83363
G1 X107.65 Y83.12 E1.84129
G1 X110.22 Y84.60 E1.89551
G1 X110.55 Y84.85 E1.90319
G1 X112.65 Y86.95 E1.95744
G1 X112.90 Y87.28 E1.96512
G1 X114.38 Y89.85 E2.01934
G1 X114.54 Y90.24 E2.02702
G1 X115.31 Y93.10 E2.08126
G1 X115.37 Y93.52 E2.08894
G1 X115.37 Y96.48 E2.14314
G1 X115.31 Y96.90 E2.15082
G1 X114.54 Y99.76 E2.20506
G1 X114.38 Y100.15 E2.21274
G1 X112.90 Y102.72 E2.26695
G1 X112.65 Y103.05 E2.27464
G1 X110.55 Y105.15 E2.32889
G1 X110.22 Y105.40 E2.33657
G1 X107.65 Y106.88 E2.39078
G1 X107.26 Y107.04 E2.39846
G1 X104.40 Y107.81 E2.45271
G1 X103.98 Y107.87 E2.46038
G1 X101.02 Y107.87 E2.51459
G1 X100.60 Y107.81 E2.52226
G1 X97.74 Y107.04 E2.57651
G1 X97.35 Y106.88 E2.58418
G1 X94.78 Y105.40 E2.63840
G1 X94.45 Y105.15 E2.64608
G1 X92.35 Y103.05 E2.70033
G1 X92.10 Y102.72 E2.70802
G1 X90.62 Y100.15 E2.76223
G1 X90.46 Y99.76 E2.76991
G1 X89.69 Y96.90 E2.82415
G1 X89.63 Y96.48 E2.83183
G1 X89.63 Y93.52 E2.88603
G1 X89.69 Y93.10 E2.89370
G1 X90.46 Y90.24 E2.94795
G1 X90.62 Y89.85 E2.95562
G1 X92.10 Y87.28 E3.00984
G1 X92.35 Y86.95 E3.01752
G1 F2400 E-1.48248
G0 F2700 X95.25 Y89.43
;TYPE:WALL-INNER
---DEMO---
;End GCode
M104 S0                     ;extruder heater off
M140 S0                     ;heated bed heater off (if you have it)
G91                                    ;relative positioning
G1 E-1 F300                            ;retract the filament a bit before lifting the nozzle, to release some of the pressure
G1 Z+0.5 E-5 X-20 Y-20 F10500 ;move Z up a bit and retract filament even more
G28 X0 Y0                              ;move X/Y to min endstops, so the head is out of the way
M84                         ;steppers off
G90                         ;absolute positioning
;CURA_PROFILE_STRING:eNrtV01v4zYQvQpGf8QcW3SjUrK9STbQpUWyl6YosAGazUWgpbHFRhIFkopjG/7vHZKSIzt2u4vdXhargy0NZ4bz8eZRKvkKVVqgWBQmYWEULHlZpqYQ2WONWpPoIlBoFM+MkHWKNZ+VmNypFgMtS5GnpXMwNHgbzAX5yLHWwqySiAW1XK9LTLVYI61PgkaJ2qS6QcyT82n3aLBqUHHTKkzi6Ig0Tthr4fiYcLITzjDfc3zOAt02jVQm+UPWGDQlN3OpqpTnBWrK0Is7nTRveZnis1GtW7vhpUabHa+QnOeC/g2qJA4vLl+L4xNyG/Ir4WQonJdySXVjIRvW3tdrciDllWxrk0zC6VDqAu+W4mkwk8bIaq9L40DO/saM2iDqx8Q6lU+oSt44WxLEAXl7wrLbNzqfkk7nyDfdL8QsELXruH+2rjIpy7QSdY8OUWEyDea8B1DeIehRUJFLUWOa+VA70YI3yZj8WAvnIoncfRcKYy9PacWfnWS355yk1G60yHPCAjnhVMzNELdGNsNHn5iXuGS6atjq9WhwTsdUBCWqvaipIXxuKBK1EDUl6p6cgm54JupFEoWdzoxrPOjDi9yaLEVuCpKfezmBGNWcZ/tG8eHi0DKmBJ7TQiolqNRpWzuY2KleNZjyHYpP68yO6lCAssE6nQmjjynQnNiRf6KsjTBZYfP2ak3ZUmGoWoSTRfJj2USjsIdfhjaJ9Dk5iw5EKxL9oA1XJlxkMsfk6kMpMsyBm3ewyflqa38N0p8F2HZ09SvXIgONxtDe+h38bqEDntzIpBxw3Rb+onRJZ7NPeFu4oe6TeMhh5PpPSydg96G1jnD8pjfd1AIVKPeGfor9+G2rgWjp914MrDKpzdDKPm9H7+MIuuuK+EFRWk+8bFGP3l+y3QqfEXhbg9BICpNaSGmPbiN23iu46sFSmAJMgUBDA3I+J+8XcM/gI7PeCehw/8tHMBJoegDrXNNsaKf0wLoQrNLDa5UIHiKiBbjZDLli2xnYLXuChVwua4imVUUZxHC9S+Llulqjks7IMW5OnS6xXpjC7nMTMwbX4wOLThHGVUWJgZ18oNCyx8/fBPiCi9pttZ8MFTQ6B9d/Km8YhgHl3yPyus7h/W90a8s+gQ9HdhzEabFIgFWuCbfRhJ00cHo50PE1MIEfxRxWsoWCwgNhfqIsI/iE60ohtYEmcw8olOr1GaU7Zuw/jN2x4hHUw5YD0QDFR71FsNxKHp2GP+vfWKzQrki0BlpWaNvj8KBoyOgkdtj5mYVTimEK92cxwdH+HEfSA7RNtyWnivcR7aLBJ6yhktbtC7T/NalTsH9D0bpA7aEBQoNsTR/7kq9GtxeT0061wYZeNbQfssvTMRyd3MBNa/yd7L4lsruLvoTvInac7yL2VQnP7XW2Of7+uB3dsa+Yw/+WxCewdnyCtu/YZzK3tYm+s/13tv8Stu++KoZvuDvhyyuG/4TZU3KSgYZCIp4Mw0w/JUFN6PPv0T3Ybx09SbAr4JdA1nuEFUJGzVPp2tbALlCRRMVLWHcHCiyp13ZObQH5I3WZumqFOfmVBgrXq1XnXofdJH8zkD0E6iG2PgOyl+yTKnL0uLMxbbpW0eG9oW/fdN0zXl/yCO43Bx9XW/h4IFptXzHmjrHfdq4CvbTfcdcdne1eTJyUSmuWiB5HWauUS7NnPlsEV2yLuV76BpYFGTQdKfujumpLI5pyx+xqAB7b//FbuJky1h9Bo7tNr7j1qdKHr0/Q3lBaD+5mfTS/6wNv/wABPgUW

