;Generated with Cura_SteamEngine 13.06.4
M109 T0 S215.000000
T0
;Sliced at: Thu 03 Oct 2013 01:44:44
;Basic settings: Layer height: 0.1 Walls: 0.8 Fill: 15
;Print time: #P_TIME#
;Filament used: #F_AMNT#m #F_WGHT#g
;Filament cost: #F_COST#
G21        ;metric values
G90        ;absolute positioning
M107       ;start with the fan off
G28 X0 Y0  ;move X/Y to min endstops
G28 Z0     ;move Z to min endstops
G1 Z15.0 F10500 ;move the platform down 15mm
G92 E0                  ;zero the extruded length
G1 F200 E3              ;extrude 3mm of feed stock
G92 E0                  ;zero the extruded length again
G1 F10500
M117 Printing...

;total_layers=337
;LAYER:0
M107
G0 F2100 X91.75 Y86.23 Z0.30
;TYPE:SKIRT
G1 F1200 X92.01 Y85.98 E0.00669
G1 X92.53 Y85.57 E0.01865
G1 X92.83 Y85.38 E0.02530
G1 X93.40 Y85.08 E0.03701
G1 X93.73 Y84.96 E0.04340
G1 X94.32 Y84.79 E0.05469
G1 X94.65 Y84.72 E0.06089
G1 X95.14 Y84.68 E0.06985
G1 X95.27 Y84.68 E0.07220
G1 X95.74 Y84.67 E0.08074
G1 X95.77 Y84.67 E0.08142
G1 X96.08 Y84.67 E0.08698
G1 X96.10 Y84.67 E0.08738
G1 X96.17 Y84.67 E0.08866
G1 X96.89 Y84.67 E0.10182
G1 X97.27 Y84.67 E0.10879
G1 X97.28 Y84.67 E0.10899
G1 X97.60 Y84.67 E0.11486
G1 X98.00 Y84.67 E0.12220
G1 X98.01 Y84.67 E0.12240
G1 X98.34 Y84.67 E0.12829
G1 X98.74 Y84.67 E0.13562
G1 X98.75 Y84.67 E0.13583
G1 X99.07 Y84.67 E0.14170
G1 X99.47 Y84.67 E0.14903
G1 X99.48 Y84.67 E0.14923
G1 X99.80 Y84.67 E0.15511
G1 X100.20 Y84.67 E0.16244
G1 X100.21 Y84.67 E0.16264
G1 X100.52 Y84.67 E0.16817
G1 X101.26 Y84.67 E0.18178
G1 X101.28 Y84.67 E0.18220
G1 X101.54 Y84.67 E0.18696
G1 X101.71 Y84.67 E0.19001
G1 X102.45 Y84.69 E0.20352
G1 X102.50 Y84.70 E0.20455
G1 X102.55 Y84.69 E0.20540
G1 X102.76 Y84.68 E0.20920
G1 X103.42 Y84.67 E0.22133
G1 X103.46 Y84.67 E0.22199
G1 X103.73 Y84.67 E0.22694
G1 X103.92 Y84.67 E0.23046
G1 X103.95 Y84.67 E0.23101
G1 X104.49 Y84.67 E0.24098
G1 X104.95 Y84.67 E0.24926
G1 X104.96 Y84.67 E0.24945
G1 X105.21 Y84.67 E0.25402
G1 X105.68 Y84.67 E0.26269
G1 X105.69 Y84.67 E0.26287
G1 X105.94 Y84.67 E0.26743
G1 X106.41 Y84.67 E0.27610
G1 X106.42 Y84.67 E0.27628
G1 X106.67 Y84.67 E0.28084
G1 X107.15 Y84.67 E0.28951
G1 X107.16 Y84.67 E0.28969
G1 X107.41 Y84.67 E0.29427
G1 X107.88 Y84.67 E0.30294
G1 X107.89 Y84.67 E0.30312
G1 X108.13 Y84.67 E0.30742
G1 X108.94 Y84.67 E0.32240
G1 X108.96 Y84.67 E0.32277
G1 X109.21 Y84.67 E0.32729
G1 X109.35 Y84.67 E0.32974
G1 X109.47 Y84.67 E0.33203
G1 X110.29 Y84.72 E0.34707
G1 X110.71 Y84.79 E0.35478
G1 X111.35 Y84.98 E0.36705
G1 X111.68 Y85.12 E0.37356
G1 X112.25 Y85.43 E0.38547
G1 X112.56 Y85.63 E0.39224
G1 X113.07 Y86.05 E0.40426
G1 X113.32 Y86.32 E0.41095
G1 X113.73 Y86.83 E0.42291
G1 X113.92 Y87.13 E0.42956
G1 X114.21 Y87.70 E0.44127
G1 X114.34 Y88.03 E0.44766
G1 X114.51 Y88.62 E0.45894
G1 X114.57 Y88.95 E0.46513
G1 X114.62 Y89.45 E0.47421
G1 X114.63 Y89.59 E0.47677
G1 X114.63 Y90.18 E0.48771
G1 X114.63 Y90.21 E0.48821
G1 X114.63 Y90.53 E0.49399
G1 X114.63 Y90.72 E0.49759
G1 X114.63 Y90.75 E0.49807
G1 X114.63 Y91.37 E0.50934
G1 X114.63 Y91.87 E0.51846
G1 X114.63 Y91.88 E0.51867
G1 X114.63 Y92.16 E0.52384
G1 X114.63 Y92.68 E0.53337
G1 X114.63 Y92.69 E0.53358
G1 X114.63 Y92.97 E0.53875
G1 X114.63 Y93.50 E0.54828
G1 X114.63 Y93.51 E0.54848
G1 X114.63 Y93.79 E0.55366
G1 X114.63 Y94.31 E0.56321
G1 X114.63 Y94.32 E0.56341
G1 X114.63 Y94.61 E0.56859
G1 X114.63 Y95.13 E0.57810
G1 X114.63 Y95.14 E0.57830
G1 X114.63 Y95.42 E0.58348
G1 X114.63 Y95.94 E0.59303
G1 X114.63 Y95.95 E0.59323
G1 X114.63 Y96.24 E0.59841
G1 X114.63 Y96.76 E0.60794
G1 X114.63 Y96.77 E0.60814
G1 X114.63 Y97.05 E0.61332
G1 X114.63 Y97.57 E0.62285
G1 X114.63 Y97.58 E0.62305
G1 X114.63 Y97.87 E0.62823
G1 X114.63 Y98.39 E0.63778
G1 X114.63 Y98.40 E0.63798
G1 X114.63 Y98.68 E0.64315
G1 X114.63 Y99.57 E0.65949
G1 X114.63 Y99.59 E0.65982
G1 X114.63 Y99.90 E0.66551
G1 X114.63 Y100.02 E0.66758
G1 X114.63 Y100.13 E0.66972
G1 X114.58 Y100.98 E0.68529
G1 X114.51 Y101.40 E0.69311
G1 X114.32 Y102.05 E0.70541
G1 X114.18 Y102.38 E0.71193
G1 X113.87 Y102.95 E0.72384
G1 X113.67 Y103.26 E0.73060
G1 X113.25 Y103.76 E0.74263
G1 X112.98 Y104.02 E0.74932
G1 X112.47 Y104.43 E0.76128
G1 X112.17 Y104.62 E0.76793
G1 X111.60 Y104.92 E0.77964
G1 X111.27 Y105.04 E0.78603
G1 X110.68 Y105.21 E0.79732
G1 X110.35 Y105.27 E0.80352
G1 X109.85 Y105.32 E0.81258
G1 X109.71 Y105.33 E0.81511
G1 X109.17 Y105.33 E0.82509
G1 X109.14 Y105.33 E0.82562
G1 X108.87 Y105.33 E0.83051
G1 X108.68 Y105.33 E0.83404
G1 X108.65 Y105.33 E0.83459
G1 X108.10 Y105.33 E0.84463
G1 X107.65 Y105.33 E0.85285
G1 X107.64 Y105.33 E0.85303
G1 X107.39 Y105.33 E0.85757
G1 X106.92 Y105.33 E0.86626
G1 X106.91 Y105.33 E0.86644
G1 X106.66 Y105.33 E0.87099
G1 X106.18 Y105.33 E0.87968
G1 X106.17 Y105.33 E0.87987
G1 X105.93 Y105.33 E0.88440
G1 X105.45 Y105.33 E0.89309
G1 X105.44 Y105.33 E0.89327
G1 X105.19 Y105.33 E0.89781
G1 X104.72 Y105.33 E0.90650
G1 X104.71 Y105.33 E0.90668
G1 X104.48 Y105.33 E0.91089
G1 X103.65 Y105.33 E0.92598
G1 X103.63 Y105.33 E0.92635
G1 X103.39 Y105.33 E0.93081
G1 X103.27 Y105.33 E0.93303
G1 X103.17 Y105.33 E0.93477
G1 X102.54 Y105.31 E0.94634
G1 X102.50 Y105.30 E0.94715
G1 X102.45 Y105.31 E0.94794
G1 X102.26 Y105.32 E0.95157
G1 X101.67 Y105.33 E0.96226
G1 X101.63 Y105.33 E0.96305
G1 X101.29 Y105.33 E0.96919
G1 X101.23 Y105.33 E0.97034
G1 X100.51 Y105.33 E0.98357
G1 X100.13 Y105.33 E0.99047
G1 X100.12 Y105.33 E0.99067
G1 X99.80 Y105.33 E0.99654
G1 X99.40 Y105.33 E1.00390
G1 X99.39 Y105.33 E1.00410
G1 X99.07 Y105.33 E1.00995
G1 X98.66 Y105.33 E1.01730
G1 X98.65 Y105.33 E1.01751
G1 X98.33 Y105.33 E1.02336
G1 X97.93 Y105.33 E1.03071
G1 X97.92 Y105.33 E1.03091
G1 X97.60 Y105.33 E1.03679
G1 X97.20 Y105.33 E1.04414
G1 X97.18 Y105.33 E1.04434
G1 X96.89 Y105.33 E1.04974
G1 X96.14 Y105.33 E1.06346
G1 X96.12 Y105.33 E1.06388
G1 X95.85 Y105.33 E1.06875
G1 X95.83 Y105.33 E1.06906
G1 X95.65 Y105.33 E1.07248
G1 X94.72 Y105.28 E1.08946
G1 X94.30 Y105.21 E1.09733
G1 X93.65 Y105.01 E1.10968
G1 X93.32 Y104.88 E1.11619
G1 X92.75 Y104.57 E1.12811
G1 X92.44 Y104.37 E1.13487
G1 X91.93 Y103.95 E1.14690
G1 X91.68 Y103.68 E1.15359
G1 X91.27 Y103.17 E1.16555
G1 X91.07 Y102.87 E1.17219
G1 X90.78 Y102.30 E1.18390
G1 X90.66 Y101.97 E1.19029
G1 X90.49 Y101.38 E1.20157
G1 X90.43 Y101.05 E1.20777
G1 X90.38 Y100.56 E1.21675
G1 X90.37 Y100.43 E1.21917
G1 X90.36 Y99.91 E1.22852
G1 X90.36 Y99.88 E1.22912
G1 X90.37 Y99.53 E1.23552
G1 X90.37 Y99.50 E1.23600
G1 X90.36 Y99.44 E1.23711
G1 X90.37 Y98.68 E1.25115
G1 X90.37 Y98.22 E1.25954
G1 X90.37 Y98.21 E1.25971
G1 X90.37 Y97.86 E1.26607
G1 X90.37 Y97.40 E1.27445
G1 X90.37 Y97.39 E1.27462
G1 X90.37 Y97.05 E1.28098
G1 X90.37 Y96.59 E1.28936
G1 X90.37 Y96.58 E1.28953
G1 X90.37 Y96.23 E1.29589
G1 X90.37 Y95.77 E1.30429
G1 X90.37 Y95.76 E1.30445
G1 X90.37 Y95.42 E1.31082
G1 X90.37 Y94.96 E1.31920
G1 X90.37 Y94.95 E1.31936
G1 X90.37 Y94.60 E1.32571
G1 X90.37 Y94.14 E1.33411
G1 X90.37 Y94.13 E1.33427
G1 X90.37 Y93.79 E1.34064
G1 X90.37 Y93.33 E1.34902
G1 X90.37 Y93.32 E1.34918
G1 X90.37 Y92.97 E1.35555
G1 X90.37 Y92.51 E1.36393
G1 X90.37 Y92.50 E1.36409
G1 X90.37 Y92.15 E1.37046
G1 X90.37 Y91.70 E1.37885
G1 X90.37 Y91.69 E1.37902
G1 X90.37 Y91.36 E1.38498
G1 X90.36 Y90.52 E1.40042
G1 X90.36 Y90.50 E1.40079
G1 X90.37 Y90.19 E1.40642
G1 X90.36 Y90.16 E1.40703
G1 X90.37 Y89.99 E1.41010
G1 X90.41 Y89.03 E1.42769
G1 X90.49 Y88.60 E1.43565
G1 X90.68 Y87.95 E1.44805
G1 X90.82 Y87.62 E1.45456
G1 X91.13 Y87.05 E1.46648
G1 X91.33 Y86.74 E1.47324
G1 X91.75 Y86.23 E1.48527
G0 F2100 X92.05 Y86.51
G1 F1200 X92.28 Y86.28 E1.49119
G1 X92.76 Y85.90 E1.50243
G1 X93.03 Y85.72 E1.50833
G1 X93.57 Y85.45 E1.51931
G1 X93.85 Y85.34 E1.52497
G1 X94.41 Y85.18 E1.53557
G1 X94.71 Y85.12 E1.54110
G1 X95.17 Y85.08 E1.54960
G1 X95.29 Y85.07 E1.55169
G1 X95.74 Y85.07 E1.56005
G1 X95.78 Y85.07 E1.56067
G1 X96.09 Y85.07 E1.56634
G1 X96.11 Y85.07 E1.56675
G1 X96.17 Y85.07 E1.56788
G1 X96.89 Y85.07 E1.58100
G1 X97.27 Y85.07 E1.58802
G1 X97.28 Y85.07 E1.58819
G1 X97.60 Y85.07 E1.59408
G1 X98.00 Y85.07 E1.60143
G1 X98.01 Y85.07 E1.60160
G1 X98.34 Y85.07 E1.60751
G1 X98.74 Y85.07 E1.61486
G1 X98.75 Y85.07 E1.61502
G1 X99.07 Y85.07 E1.62091
G1 X99.47 Y85.07 E1.62827
G1 X99.48 Y85.07 E1.62843
G1 X99.80 Y85.07 E1.63432
G1 X100.20 Y85.07 E1.64168
G1 X100.21 Y85.07 E1.64184
G1 X100.52 Y85.07 E1.64744
G1 X101.26 Y85.07 E1.66105
G1 X101.28 Y85.07 E1.66142
G1 X101.55 Y85.07 E1.66638
G1 X101.56 Y85.07 E1.66654
G1 X101.70 Y85.07 E1.66912
G1 X102.42 Y85.09 E1.68221
G1 X102.51 Y85.10 E1.68387
G1 X102.59 Y85.09 E1.68538
G1 X102.78 Y85.08 E1.68876
G1 X103.43 Y85.07 E1.70065
G1 X103.46 Y85.07 E1.70123
G1 X103.73 Y85.07 E1.70619
G1 X103.92 Y85.07 E1.70970
G1 X103.94 Y85.07 E1.71016
G1 X104.49 Y85.07 E1.72015
G1 X104.95 Y85.07 E1.72847
G1 X104.96 Y85.07 E1.72867
G1 X105.21 Y85.07 E1.73323
G1 X105.68 Y85.07 E1.74190
G1 X105.69 Y85.07 E1.74210
G1 X105.94 Y85.07 E1.74664
G1 X106.41 Y85.07 E1.75531
G1 X106.42 Y85.07 E1.75551
G1 X106.67 Y85.07 E1.76005
G1 X107.15 Y85.07 E1.76872
G1 X107.16 Y85.07 E1.76892
G1 X107.41 Y85.07 E1.77348
G1 X107.88 Y85.07 E1.78215
G1 X107.89 Y85.07 E1.78235
G1 X108.13 Y85.07 E1.78667
G1 X108.95 Y85.07 E1.80167
G1 X108.96 Y85.07 E1.80200
G1 X109.21 Y85.07 E1.80655
G1 X109.34 Y85.07 E1.80893
G1 X109.46 Y85.07 E1.81096
G1 X110.25 Y85.11 E1.82546
G1 X110.61 Y85.18 E1.83231
G1 X111.21 Y85.36 E1.84378
G1 X111.51 Y85.48 E1.84955
G1 X112.05 Y85.77 E1.86073
G1 X112.32 Y85.95 E1.86675
G1 X112.79 Y86.35 E1.87804
G1 X113.02 Y86.58 E1.88397
G1 X113.40 Y87.06 E1.89520
G1 X113.58 Y87.33 E1.90110
G1 X113.85 Y87.87 E1.91209
G1 X113.96 Y88.15 E1.91775
G1 X114.12 Y88.71 E1.92835
G1 X114.18 Y89.01 E1.93387
G1 X114.22 Y89.47 E1.94245
G1 X114.23 Y89.60 E1.94474
G1 X114.23 Y90.19 E1.95550
G1 X114.23 Y90.21 E1.95595
G1 X114.23 Y90.53 E1.96170
G1 X114.23 Y90.72 E1.96532
G1 X114.23 Y90.75 E1.96576
G1 X114.23 Y91.36 E1.97699
G1 X114.23 Y91.87 E1.98621
G1 X114.23 Y91.88 E1.98638
G1 X114.23 Y92.16 E1.99155
G1 X114.23 Y92.68 E2.00112
G1 X114.23 Y92.69 E2.00129
G1 X114.23 Y92.97 E2.00646
G1 X114.23 Y93.50 E2.01603
G1 X114.23 Y93.51 E2.01619
G1 X114.23 Y93.79 E2.02137
G1 X114.23 Y94.31 E2.03096
G1 X114.23 Y94.32 E2.03112
G1 X114.23 Y94.61 E2.03630
G1 X114.23 Y95.13 E2.04585
G1 X114.23 Y95.14 E2.04601
G1 X114.23 Y95.42 E2.05119
G1 X114.23 Y95.94 E2.06078
G1 X114.23 Y95.95 E2.06094
G1 X114.23 Y96.24 E2.06612
G1 X114.23 Y96.76 E2.07568
G1 X114.23 Y96.77 E2.07585
G1 X114.23 Y97.05 E2.08103
G1 X114.23 Y97.57 E2.09059
G1 X114.23 Y97.58 E2.09076
G1 X114.23 Y97.86 E2.09594
G1 X114.23 Y98.39 E2.10552
G1 X114.23 Y98.40 E2.10569
G1 X114.23 Y98.68 E2.11086
G1 X114.23 Y99.58 E2.12724
G1 X114.23 Y99.59 E2.12755
G1 X114.23 Y99.90 E2.13322
G1 X114.23 Y100.01 E2.13527
G1 X114.23 Y100.12 E2.13715
G1 X114.18 Y100.94 E2.15218
G1 X114.12 Y101.31 E2.15914
G1 X113.94 Y101.92 E2.17064
G1 X113.82 Y102.21 E2.17642
G1 X113.53 Y102.75 E2.18760
G1 X113.35 Y103.02 E2.19362
G1 X112.95 Y103.49 E2.20491
G1 X112.72 Y103.72 E2.21083
G1 X112.24 Y104.10 E2.22206
G1 X111.97 Y104.28 E2.22796
G1 X111.43 Y104.55 E2.23895
G1 X111.14 Y104.66 E2.24461
G1 X110.59 Y104.82 E2.25521
G1 X110.29 Y104.88 E2.26073
G1 X109.82 Y104.92 E2.26933
G1 X109.70 Y104.93 E2.27155
G1 X109.17 Y104.93 E2.28137
G1 X109.14 Y104.93 E2.28187
G1 X108.87 Y104.93 E2.28675
G1 X108.68 Y104.93 E2.29028
G1 X108.65 Y104.93 E2.29074
G1 X108.11 Y104.93 E2.30076
G1 X107.65 Y104.93 E2.30905
G1 X107.64 Y104.93 E2.30925
G1 X107.39 Y104.93 E2.31377
G1 X106.92 Y104.93 E2.32246
G1 X106.91 Y104.93 E2.32266
G1 X106.66 Y104.93 E2.32720
G1 X106.18 Y104.93 E2.33589
G1 X106.17 Y104.93 E2.33609
G1 X105.93 Y104.93 E2.34061
G1 X105.45 Y104.93 E2.34930
G1 X105.44 Y104.93 E2.34950
G1 X105.19 Y104.93 E2.35402
G1 X104.72 Y104.93 E2.36271
G1 X104.71 Y104.93 E2.36291
G1 X104.48 Y104.93 E2.36715
G1 X103.65 Y104.93 E2.38224
G1 X103.63 Y104.93 E2.38257
G1 X103.39 Y104.93 E2.38709
G1 X103.27 Y104.93 E2.38925
G1 X103.18 Y104.93 E2.39077
G1 X102.57 Y104.91 E2.40199
G1 X102.49 Y104.90 E2.40352
G1 X102.41 Y104.91 E2.40494
G1 X102.24 Y104.92 E2.40817
G1 X101.67 Y104.93 E2.41860
G1 X101.63 Y104.93 E2.41931
G1 X101.29 Y104.93 E2.42553
G1 X101.23 Y104.93 E2.42657
G1 X100.51 Y104.93 E2.43975
G1 X100.13 Y104.93 E2.44672
G1 X100.12 Y104.93 E2.44688
G1 X99.80 Y104.93 E2.45277
G1 X99.39 Y104.93 E2.46014
G1 X99.39 Y104.93 E2.46031
G1 X99.07 Y104.93 E2.46618
G1 X98.66 Y104.93 E2.47355
G1 X98.65 Y104.93 E2.47372
G1 X98.33 Y104.93 E2.47959
G1 X97.93 Y104.93 E2.48696
G1 X97.92 Y104.93 E2.48713
G1 X97.60 Y104.93 E2.49302
G1 X97.19 Y104.93 E2.50039
G1 X97.19 Y104.93 E2.50055
G1 X96.89 Y104.93 E2.50602
G1 X96.14 Y104.93 E2.51974
G1 X96.12 Y104.93 E2.52011
G1 X95.84 Y104.93 E2.52518
G1 X95.82 Y104.93 E2.52547
G1 X95.66 Y104.93 E2.52849
G1 X94.77 Y104.89 E2.54485
G1 X94.39 Y104.82 E2.55187
G1 X93.78 Y104.64 E2.56341
G1 X93.49 Y104.52 E2.56918
G1 X92.95 Y104.23 E2.58036
G1 X92.68 Y104.05 E2.58638
G1 X92.21 Y103.65 E2.59767
G1 X91.98 Y103.42 E2.60360
G1 X91.60 Y102.94 E2.61483
G1 X91.42 Y102.67 E2.62073
G1 X91.15 Y102.13 E2.63172
G1 X91.04 Y101.85 E2.63738
G1 X90.88 Y101.29 E2.64797
G1 X90.82 Y100.99 E2.65350
G1 X90.78 Y100.53 E2.66200
G1 X90.77 Y100.41 E2.66417
G1 X90.76 Y99.91 E2.67333
G1 X90.76 Y99.88 E2.67386
G1 X90.77 Y99.52 E2.68038
G1 X90.77 Y99.50 E2.68083
G1 X90.76 Y99.44 E2.68186
G1 X90.77 Y98.68 E2.69589
G1 X90.77 Y98.22 E2.70427
G1 X90.77 Y98.21 E2.70443
G1 X90.77 Y97.86 E2.71082
G1 X90.77 Y97.40 E2.71918
G1 X90.77 Y97.39 E2.71934
G1 X90.77 Y97.04 E2.72573
G1 X90.77 Y96.59 E2.73409
G1 X90.77 Y96.58 E2.73425
G1 X90.77 Y96.23 E2.74064
G1 X90.77 Y95.77 E2.74901
G1 X90.77 Y95.76 E2.74918
G1 X90.77 Y95.41 E2.75556
G1 X90.77 Y94.96 E2.76392
G1 X90.77 Y94.95 E2.76409
G1 X90.77 Y94.60 E2.77045
G1 X90.77 Y94.14 E2.77883
G1 X90.77 Y94.13 E2.77900
G1 X90.77 Y93.78 E2.78538
G1 X90.77 Y93.33 E2.79374
G1 X90.77 Y93.32 E2.79391
G1 X90.77 Y92.97 E2.80029
G1 X90.77 Y92.51 E2.80865
G1 X90.77 Y92.50 E2.80882
G1 X90.77 Y92.15 E2.81520
G1 X90.77 Y91.70 E2.82358
G1 X90.77 Y91.69 E2.82374
G1 X90.77 Y91.36 E2.82976
G1 X90.76 Y90.51 E2.84518
G1 X90.76 Y90.50 E2.84551
G1 X90.77 Y90.18 E2.85131
G1 X90.76 Y90.15 E2.85188
G1 X90.77 Y90.00 E2.85464
G1 X90.81 Y89.07 E2.87159
G1 X90.88 Y88.69 E2.87870
G1 X91.06 Y88.08 E2.89027
G1 X91.18 Y87.79 E2.89605
G1 X91.47 Y87.25 E2.90723
G1 X91.65 Y86.98 E2.91325
G1 X92.05 Y86.51 E2.92454
G1 F2400 E-1.57546
G0 F2100 X94.82 Y89.11
;TYPE:WALL-INNER
G1 F2400 E2.92454
G1 F1200 X94.95 Y89.01 E2.92756
G1 X95.11 Y88.93 E2.93068
G1 X95.25 Y88.89 E2.93352
G1 X95.79 Y88.87 E2.94338
G1 X96.15 Y88.87 E2.94984
G1 X96.18 Y88.87 E2.95045
G1 X96.87 Y88.87 E2.96301
G1 X97.27 Y88.87 E2.97048
G1 X97.60 Y88.87 E2.97644
G1 X98.01 Y88.87 E2.98389
G1 X98.33 Y88.87 E2.98987
G1 X98.74 Y88.87 E2.99731
G1 X99.07 Y88.87 E3.00328
G1 X99.47 Y88.87 E3.01072
G1 X99.80 Y88.87 E3.01669
G1 X100.21 Y88.87 E3.02413
G1 X100.54 Y88.87 E3.03019
G1 X101.29 Y88.87 E3.04391
G1 X102.12 Y88.88 E3.05917
G1 X102.43 Y88.95 E3.06499
G1 X102.57 Y88.95 E3.06740
G1 X102.65 Y88.94 E3.06907
G1 X102.76 Y88.90 E3.07116
G1 X102.97 Y88.88 E3.07490
G1 X103.47 Y88.87 E3.08410
G1 X103.73 Y88.87 E3.08893
G1 X103.92 Y88.87 E3.09234
G1 X104.46 Y88.87 E3.10231
G1 X104.95 Y88.87 E3.11114
G1 X105.20 Y88.87 E3.11575
G1 X105.68 Y88.87 E3.12457
G1 X105.93 Y88.87 E3.12916
G1 X106.42 Y88.87 E3.13798
G1 X106.67 Y88.87 E3.14257
G1 X107.15 Y88.87 E3.15139
G1 X107.40 Y88.87 E3.15600
G1 X107.88 Y88.87 E3.16482
G1 X108.14 Y88.87 E3.16944
G1 X108.96 Y88.87 E3.18461
G1 X109.24 Y88.87 E3.18960
G1 X109.31 Y88.87 E3.19094
G1 X109.76 Y88.89 E3.19928
G1 X109.92 Y88.94 E3.20216
G1 X110.06 Y89.01 E3.20509
G1 X110.19 Y89.12 E3.20821
G1 X110.29 Y89.25 E3.21123
G1 X110.37 Y89.40 E3.21435
G1 X110.41 Y89.55 E3.21718
G1 X110.43 Y90.22 E3.22939
G1 X110.43 Y90.52 E3.23481
G1 X110.43 Y90.73 E3.23874
G1 X110.43 Y91.33 E3.24968
G1 X110.43 Y91.87 E3.25956
G1 X110.43 Y92.15 E3.26463
G1 X110.43 Y92.68 E3.27447
G1 X110.43 Y92.96 E3.27954
G1 X110.43 Y93.50 E3.28938
G1 X110.43 Y93.78 E3.29445
G1 X110.43 Y94.32 E3.30431
G1 X110.43 Y94.59 E3.30937
G1 X110.43 Y95.13 E3.31920
G1 X110.43 Y95.41 E3.32426
