;Generated with Cura_SteamEngine 13.06.4
M109 T0 S215.000000
T0
;Sliced at: Sat 14 Sep 2013 00:55:34
;Basic settings: Layer height: 0.1 Walls: 0.8 Fill: 10
;Print time: #P_TIME#
;Filament used: #F_AMNT#m #F_WGHT#g
;Filament cost: #F_COST#
G21        ;metric values
G90        ;absolute positioning
M107       ;start with the fan off
G28 X0 Y0  ;move X/Y to min endstops
G28 Z0     ;move Z to min endstops
G1 Z15.0 F10500 ;move the platform down 15mm
G92 E0                  ;zero the extruded length
G1 F200 E3              ;extrude 3mm of feed stock
G92 E0                  ;zero the extruded length again
G1 F10500
M117 Printing...

;total_layers=199
;LAYER:0
M107
G0 F2700 X92.05 Y86.68 Z0.30
;TYPE:SKIRT
G1 F1140 X94.18 Y84.55 E0.05518
G1 X94.56 Y84.26 E0.06384
G1 X97.17 Y82.76 E0.11903
G1 X97.61 Y82.58 E0.12764
G1 X100.53 Y81.79 E0.18287
G1 X101.00 Y81.73 E0.19156
G1 X104.03 Y81.74 E0.24704
G1 X104.50 Y81.80 E0.25564
G1 X107.39 Y82.58 E0.31049
G1 X107.82 Y82.76 E0.31909
G1 X110.44 Y84.26 E0.37428
G1 X110.81 Y84.55 E0.38293
G1 X112.95 Y86.68 E0.43811
G1 X113.23 Y87.06 E0.44677
G1 X114.74 Y89.67 E0.50196
G1 X114.92 Y90.11 E0.51057
G1 X115.70 Y93.02 E0.56576
G1 X115.77 Y93.49 E0.57442
G1 X115.77 Y96.51 E0.62957
G1 X115.70 Y96.98 E0.63822
G1 X114.92 Y99.89 E0.69342
G1 X114.74 Y100.32 E0.70203
G1 X113.23 Y102.94 E0.75722
G1 X112.95 Y103.31 E0.76587
G1 X110.81 Y105.45 E0.82106
G1 X110.44 Y105.73 E0.82971
G1 X107.82 Y107.24 E0.88490
G1 X107.39 Y107.42 E0.89351
G1 X104.48 Y108.20 E0.94870
G1 X104.01 Y108.27 E0.95736
G1 X100.99 Y108.27 E1.01251
G1 X100.52 Y108.20 E1.02117
G1 X97.61 Y107.42 E1.07636
G1 X97.17 Y107.24 E1.08497
G1 X94.56 Y105.73 E1.14016
G1 X94.18 Y105.45 E1.14882
G1 X92.05 Y103.31 E1.20400
G1 X91.76 Y102.94 E1.21265
G1 X90.26 Y100.32 E1.26784
G1 X90.08 Y99.89 E1.27645
G1 X89.29 Y96.98 E1.33165
G1 X89.23 Y96.51 E1.34030
G1 X89.23 Y93.49 E1.39545
G1 X89.29 Y93.02 E1.40410
G1 X90.08 Y90.11 E1.45930
G1 X90.26 Y89.67 E1.46791
G1 X91.76 Y87.06 E1.52310
G1 X92.05 Y86.68 E1.53175
G0 F2700 X92.35 Y86.95
G1 F1140 X94.45 Y84.85 E1.58600
G1 X94.78 Y84.60 E1.59369
G1 X97.35 Y83.12 E1.64790
G1 X97.74 Y82.96 E1.65558
G1 X100.60 Y82.19 E1.70984
G1 X101.02 Y82.13 E1.71755
G1 X104.00 Y82.14 E1.77209
G1 X104.42 Y82.19 E1.77972
G1 X107.26 Y82.96 E1.83363
G1 X107.65 Y83.12 E1.84129
G1 X110.22 Y84.60 E1.89551
G1 X110.55 Y84.85 E1.90319
G1 X112.65 Y86.95 E1.95744
G1 X112.90 Y87.28 E1.96512
G1 X114.38 Y89.85 E2.01934
G1 X114.54 Y90.24 E2.02702
G1 X115.31 Y93.10 E2.08126
G1 X115.37 Y93.52 E2.08894
G1 X115.37 Y96.48 E2.14314
G1 X115.31 Y96.90 E2.15082
G1 X114.54 Y99.76 E2.20506
G1 X114.38 Y100.15 E2.21274
G1 X112.90 Y102.72 E2.26695
G1 X112.65 Y103.05 E2.27464
G1 X110.55 Y105.15 E2.32889
G1 X110.22 Y105.40 E2.33657
G1 X107.65 Y106.88 E2.39078
G1 X107.26 Y107.04 E2.39846
G1 X104.40 Y107.81 E2.45271
G1 X103.98 Y107.87 E2.46038
G1 X101.02 Y107.87 E2.51459
G1 X100.60 Y107.81 E2.52226
G1 X97.74 Y107.04 E2.57651
G1 X97.35 Y106.88 E2.58418
G1 X94.78 Y105.40 E2.63840
G1 X94.45 Y105.15 E2.64608
G1 X92.35 Y103.05 E2.70033
G1 X92.10 Y102.72 E2.70802
G1 X90.62 Y100.15 E2.76223
G1 X90.46 Y99.76 E2.76991
G1 X89.69 Y96.90 E2.82415
G1 X89.63 Y96.48 E2.83183
G1 X89.63 Y93.52 E2.88603
G1 X89.69 Y93.10 E2.89370
G1 X90.46 Y90.24 E2.94795
G1 X90.62 Y89.85 E2.95562
G1 X92.10 Y87.28 E3.00984
G1 X92.35 Y86.95 E3.01752
G1 F2400 E-1.48248
G0 F2700 X95.25 Y89.43
;TYPE:WALL-INNER
G1 F2400 E3.01752
G1 F1140 X96.93 Y87.75 E3.06109
G1 X99.00 Y86.55 E3.10481
G1 X101.31 Y85.93 E3.14850
G1 X103.71 Y85.94 E3.19241
G1 X106.00 Y86.55 E3.23580
G1 X108.07 Y87.75 E3.27952
G1 X109.75 Y89.43 E3.32309
G1 X110.95 Y91.50 E3.36681
G1 X111.57 Y93.81 E3.41050
G1 X111.57 Y96.19 E3.45412
G1 X110.95 Y98.50 E3.49781
G1 X109.75 Y100.57 E3.54153
G1 X108.07 Y102.25 E3.58510
G1 X106.00 Y103.45 E3.62882
G1 X103.69 Y104.07 E3.67251
G1 X101.31 Y104.07 E3.71612
G1 X99.00 Y103.45 E3.75982
G1 X96.93 Y102.25 E3.80354
G1 X95.25 Y100.57 E3.84711
G1 X94.05 Y98.50 E3.89083
G1 X93.43 Y96.19 E3.93452
G1 X93.43 Y93.81 E3.97813
G1 X94.05 Y91.50 E4.02182
G1 X95.25 Y89.43 E4.06555
G0 F2700 X99.18 Y88.40
G1 F1140 X99.18 Y91.35 E4.11946
G1 X99.53 Y91.70 E4.12855
G1 X105.47 Y91.70 E4.23731
G1 X105.82 Y91.35 E4.24641
G1 X105.82 Y88.40 E4.30033
G1 X105.47 Y88.05 E4.30942
G1 X99.53 Y88.05 E4.41817
G1 X99.18 Y88.40 E4.42725
G0 F2700 X99.19 Y91.34
G0 X99.53 Y91.69
G0 X101.23 Y92.04
G1 F1140 X100.57 Y92.42 E4.44122
G1 X100.51 Y92.47 E4.44267
G1 X99.97 Y93.01 E4.45659
G1 X99.92 Y93.07 E4.45803
G1 X99.54 Y93.73 E4.47199
G1 X99.51 Y93.80 E4.47342
G1 X99.31 Y94.54 E4.48740
G1 X99.30 Y94.62 E4.48887
G1 X99.32 Y95.47 E4.50438
G1 X99.51 Y96.19 E4.51812
G1 X99.54 Y96.27 E4.51960
G1 X99.93 Y96.94 E4.53378
G1 X99.98 Y97.00 E4.53522
G1 X100.52 Y97.54 E4.54916
G1 X100.58 Y97.58 E4.55055
G1 X101.23 Y97.96 E4.56427
G1 X101.30 Y97.99 E4.56570
G1 X102.04 Y98.19 E4.57968
G1 X102.12 Y98.20 E4.58115
G1 X102.97 Y98.18 E4.59672
G1 X103.71 Y97.98 E4.61068
G1 X103.78 Y97.95 E4.61211
G1 X104.44 Y97.57 E4.62605
G1 X104.50 Y97.52 E4.62744
G1 X105.03 Y96.99 E4.64116
G1 X105.08 Y96.93 E4.64260
G1 X105.46 Y96.27 E4.65656
G1 X105.49 Y96.19 E4.65799
G1 X105.69 Y95.46 E4.67195
G1 X105.70 Y94.62 E4.68730
G1 X105.69 Y94.54 E4.68873
G1 X105.49 Y93.80 E4.70269
G1 X105.46 Y93.73 E4.70412
G1 X105.03 Y93.01 E4.71953
G1 X104.49 Y92.47 E4.73348
G1 X103.75 Y92.03 E4.74919
G1 X102.89 Y91.80 E4.76551
G1 X102.27 Y91.81 E4.77683
G1 X102.22 Y91.80 E4.77771
G1 X102.03 Y91.82 E4.78125
G1 X101.30 Y92.01 E4.79494
G1 X101.23 Y92.04 E4.79638
G0 F2700 X101.41 Y92.40
;TYPE:WALL-OUTER
G1 F1140 X100.77 Y92.77 E4.80986
G1 X100.25 Y93.29 E4.82331
G1 X99.90 Y93.91 E4.83630
G1 X99.89 Y93.93 E4.83678
G1 X99.70 Y94.65 E4.85027
G1 X99.71 Y95.39 E4.86391
G1 X99.90 Y96.09 E4.87717
G1 X100.28 Y96.74 E4.89085
G1 X100.79 Y97.24 E4.90385
G1 X100.81 Y97.25 E4.90431
G1 X101.41 Y97.60 E4.91707
G1 X101.43 Y97.61 E4.91754
G1 X102.15 Y97.80 E4.93103
G1 X102.89 Y97.79 E4.94470
G1 X103.58 Y97.60 E4.95769
G1 X103.60 Y97.59 E4.95816
G1 X104.23 Y97.22 E4.97160
G1 X104.74 Y96.71 E4.98484
G1 X105.10 Y96.09 E4.99783
G1 X105.11 Y96.07 E4.99831
G1 X105.30 Y95.35 E5.01178
G1 X105.29 Y94.62 E5.02523
G1 X105.11 Y93.93 E5.03822
G1 X105.10 Y93.91 E5.03869
G1 X104.73 Y93.27 E5.05216
G1 X104.22 Y92.77 E5.06519
G1 X104.20 Y92.75 E5.06565
G1 X103.54 Y92.38 E5.07955
G1 X102.86 Y92.20 E5.09240
G1 X102.25 Y92.21 E5.10355
G1 X102.19 Y92.20 E5.10465
G1 X102.11 Y92.21 E5.10618
G1 X101.43 Y92.39 E5.11898
G1 X101.41 Y92.40 E5.11946
G0 F2700 X101.29 Y92.12
G0 X99.69 Y91.60
G0 X99.69 Y91.30
G1 F1140 X105.31 Y91.30 E5.22214
G1 X105.42 Y91.18 E5.22519
G1 X105.42 Y88.57 E5.27303
G1 X105.31 Y88.45 E5.27607
G1 X99.69 Y88.45 E5.37875
G1 X99.58 Y88.57 E5.38178
G1 X99.58 Y91.18 E5.42961
G1 X99.69 Y91.30 E5.43265
G0 F2700 X99.69 Y91.60
G0 X99.19 Y91.34
G0 X96.87 Y87.66
G0 X96.69 Y87.43
G1 F1140 X98.85 Y86.18 E5.47828
G1 X101.25 Y85.53 E5.52388
G1 X103.76 Y85.54 E5.56978
G1 X106.15 Y86.18 E5.61506
G1 X108.31 Y87.43 E5.66069
G1 X110.07 Y89.19 E5.70622
G1 X111.32 Y91.35 E5.75185
G1 X111.97 Y93.75 E5.79745
G1 X111.97 Y96.25 E5.84304
G1 X111.32 Y98.65 E5.88864
G1 X110.07 Y100.81 E5.93427
G1 X108.31 Y102.57 E5.97980
G1 X106.15 Y103.82 E6.02543
G1 X103.75 Y104.47 E6.07103
G1 X101.25 Y104.47 E6.11662
G1 X98.85 Y103.82 E6.16222
G1 X96.69 Y102.57 E6.20785
G1 X94.93 Y100.81 E6.25338
G1 X93.68 Y98.65 E6.29901
G1 X93.03 Y96.25 E6.34461
G1 X93.03 Y93.75 E6.39020
G1 X93.68 Y91.35 E6.43580
G1 X94.93 Y89.19 E6.48143
G1 X96.69 Y87.43 E6.52696
G0 F2700 X97.04 Y87.80
;TYPE:FILL
G1 F1140 X99.07 Y89.83 E6.57959
G0 F2700 X99.07 Y90.40
G1 F1140 X96.75 Y88.07 E6.63982
G0 F2700 X96.46 Y88.35
G1 F1140 X99.07 Y90.96 E6.70737
G0 F2700 X99.91 Y91.80
G1 F1140 X100.48 Y92.37 E6.72196
G0 F2700 X100.19 Y92.64
G1 F1140 X96.18 Y88.64 E6.82572
G0 F2700 X95.90 Y88.92
G1 F1140 X99.91 Y92.93 E6.92948
G0 F2700 X99.69 Y93.27
G1 F1140 X95.61 Y89.20 E7.03484
G0 F2700 X95.33 Y89.48
G1 F1140 X99.48 Y93.63 E7.14218
G0 F2700 X99.34 Y94.06
G1 F1140 X95.12 Y89.84 E7.25123
G0 F2700 X94.92 Y90.20
G1 F1140 X99.22 Y94.50 E7.36255
G0 F2700 X99.21 Y95.06
G1 F1140 X94.71 Y90.56 E7.47892
G0 F2700 X94.50 Y90.92
G1 F1140 X99.27 Y95.68 E7.60222
G0 F2700 X99.61 Y96.59
G1 F1140 X94.29 Y91.27 E7.73971
G0 F2700 X94.11 Y91.65
G1 F1140 X105.84 Y103.39 E8.04320
G0 F2700 X106.22 Y103.20
G1 F1140 X100.90 Y97.88 E8.18083
G0 F2700 X101.82 Y98.23
G1 F1140 X106.58 Y103.00 E8.30415
G0 F2700 X106.94 Y102.79
G1 F1140 X102.44 Y98.29 E8.42046
G0 F2700 X103.00 Y98.28
G1 F1140 X107.30 Y102.58 E8.53173
G0 F2700 X107.66 Y102.37
G1 F1140 X103.44 Y98.16 E8.64078
G0 F2700 X103.87 Y98.02
G1 F1140 X108.01 Y102.17 E8.74809
G0 F2700 X108.30 Y101.88
G1 F1140 X104.22 Y97.81 E8.85346
G0 F2700 X104.57 Y97.59
G1 F1140 X108.58 Y101.60 E8.95723
G0 F2700 X108.86 Y101.32
G1 F1140 X104.85 Y97.31 E9.06102
G0 F2700 X105.13 Y97.02
G1 F1140 X109.15 Y101.03 E9.16488
G0 F2700 X109.43 Y100.75
G1 F1140 X105.34 Y96.67 E9.27060
G0 F2700 X105.55 Y96.31
G1 F1140 X109.70 Y100.46 E9.37802
G0 F2700 X109.91 Y100.10
G1 F1140 X105.68 Y95.87 E9.48745
G0 F2700 X105.79 Y95.41
G1 F1140 X110.11 Y99.74 E9.59945
G0 F2700 X110.32 Y99.38
G1 F1140 X105.79 Y94.85 E9.71664
G0 F2700 X105.69 Y94.19
G1 F1140 X110.53 Y99.02 E9.84173
G0 F2700 X110.74 Y98.67
G1 F1140 X105.24 Y93.17 E9.98399
G0 F2700 X104.33 Y92.26
G1 F1140 X103.87 Y91.80 E9.99592
G0 F2700 X104.44 Y91.80
G1 F1140 X110.91 Y98.27 E10.16321
G0 F2700 X111.03 Y97.82
G1 F1140 X105.01 Y91.80 E10.31894
G0 F2700 X105.54 Y91.77
G1 F1140 X111.14 Y97.38 E10.46392
G0 F2700 X111.26 Y96.93
G1 F1140 X105.82 Y91.49 E10.60467
G0 F2700 X105.92 Y91.02
G1 F1140 X111.38 Y96.48 E10.74595
G0 F2700 X111.46 Y96.00
G1 F1140 X105.92 Y90.46 E10.88933
G0 F2700 X105.92 Y89.89
G1 F1140 X111.46 Y95.43 E11.03270
G0 F2700 X111.46 Y94.87
G1 F1140 X105.92 Y89.32 E11.17609
G0 F2700 X105.92 Y88.76
G1 F1140 X111.46 Y94.30 E11.31947
G0 F2700 X111.43 Y93.71
G1 F1140 X103.79 Y86.06 E11.51718
G0 F2700 X103.20 Y86.04
G1 F1140 X105.11 Y87.95 E11.56672
G0 F2700 X104.55 Y87.95
G1 F1140 X102.63 Y86.04 E11.61630
G0 F2700 X102.07 Y86.04
G1 F1140 X103.98 Y87.95 E11.66591
G0 F2700 X103.42 Y87.95
G1 F1140 X101.50 Y86.03 E11.71555
G0 F2700 X101.01 Y86.11
G1 F1140 X102.85 Y87.95 E11.76309
G0 F2700 X102.29 Y87.95
G1 F1140 X100.57 Y86.23 E11.80755
G0 F2700 X100.12 Y86.35
G1 F1140 X101.72 Y87.95 E11.84890
G0 F2700 X101.15 Y87.95
G1 F1140 X99.68 Y86.47 E11.88717
G0 F2700 X99.23 Y86.59
G1 F1140 X100.59 Y87.95 E11.92236
G0 F2700 X100.02 Y87.95
G1 F1140 X98.83 Y86.76 E11.95316
G0 F2700 X98.47 Y86.97
G1 F1140 X99.47 Y87.97 E11.97896
G0 F2700 X99.19 Y88.25
G1 F1140 X98.12 Y87.18 E12.00672
G0 F2700 X97.76 Y87.38
G1 F1140 X99.07 Y88.70 E12.04079
G0 F2700 X99.07 Y89.27
G1 F1140 X97.40 Y87.59 E12.08415
G0 F2700 X99.53 Y91.69
G0 X100.48 Y91.80
G1 F1140 X101.01 Y92.05 E12.09324
G1 X101.05 Y91.80 E12.09778
G0 F2700 X99.53 Y91.69
G0 X99.19 Y91.34
G0 X99.19 Y88.41
G0 X99.53 Y88.07
G0 X104.57 Y86.27
G1 F1140 X111.23 Y92.93 E12.27013
G0 F2700 X111.02 Y92.16
G1 F1140 X105.34 Y86.48 E12.41718
G0 F2700 X106.22 Y86.79
G1 F1140 X110.70 Y91.28 E12.53317
G0 F2700 X109.93 Y89.94
G1 F1140 X107.56 Y87.57 E12.59450
G0 F2700 X99.53 Y88.07
G0 X99.19 Y88.41
G0 X93.99 Y92.10
G1 F1140 X105.39 Y103.51 E12.88953
G0 F2700 X104.95 Y103.62
G1 F1140 X93.87 Y92.55 E13.17609
G0 F2700 X93.75 Y93.00
G1 F1140 X104.50 Y103.74 E13.45417
G0 F2700 X104.06 Y103.86
G1 F1140 X93.63 Y93.44 E13.72382
G0 F2700 X93.53 Y93.91
G1 F1140 X103.59 Y103.96 E13.98403
G0 F2700 X103.03 Y103.96
G1 F1140 X93.53 Y94.47 E14.22961
G0 F2700 X93.53 Y95.04
G1 F1140 X102.46 Y103.96 E14.46056
G0 F2700 X101.89 Y103.96
G1 F1140 X93.53 Y95.60 E14.67687
G0 F2700 X93.53 Y96.17
G1 F1140 X101.33 Y103.96 E14.87854
G0 F2700 X100.56 Y103.76
G1 F1140 X93.74 Y96.94 E15.05506
G0 F2700 X93.94 Y97.71
G1 F1140 X99.79 Y103.55 E15.20625
G0 F2700 X99.00 Y103.33
G1 F1140 X94.17 Y98.50 E15.33113
G0 F2700 X94.94 Y99.84
G1 F1140 X97.66 Y102.56 E15.40142
;LAYER:1
M106 S255
G0 F4620 X96.93 Y102.25 Z0.40
;TYPE:WALL-INNER
G1 F1980 X95.25 Y100.57 E15.41594
G1 X94.05 Y98.50 E15.43052
G1 X93.43 Y96.19 E15.44508
G1 X93.43 Y93.81 E15.45962
G1 X94.05 Y91.50 E15.47418
G1 X95.25 Y89.43 E15.48876
G1 X96.93 Y87.75 E15.50328
G1 X99.00 Y86.55 E15.51785
G1 X101.31 Y85.93 E15.53242
G1 X103.72 Y85.94 E15.54712
G1 X106.00 Y86.55 E15.56151
G1 X108.07 Y87.75 E15.57609
G1 X109.75 Y89.43 E15.59061
G1 X110.95 Y91.50 E15.60518
G1 X111.57 Y93.81 E15.61975
G1 X111.57 Y96.19 E15.63428
G1 X110.95 Y98.50 E15.64885
G1 X109.75 Y100.57 E15.66342
G1 X108.07 Y102.25 E15.67794
G1 X106.00 Y103.45 E15.69252
G1 X103.69 Y104.07 E15.70708
G1 X101.31 Y104.07 E15.72162
G1 X99.00 Y103.45 E15.73618
G1 X96.93 Y102.25 E15.75076
G0 F4620 X100.57 Y97.58
G1 F1980 X101.23 Y97.96 E15.75541
G1 X101.30 Y97.99 E15.75589
G1 X102.04 Y98.19 E15.76055
G1 X102.12 Y98.20 E15.76104
G1 X102.98 Y98.18 E15.76626
G1 X103.77 Y97.96 E15.77126
G1 X104.43 Y97.58 E15.77591
G1 X104.49 Y97.53 E15.77639
G1 X105.03 Y96.99 E15.78104
G1 X105.08 Y96.93 E15.78152
G1 X105.46 Y96.27 E15.78617
G1 X105.49 Y96.19 E15.78665
G1 X105.69 Y95.46 E15.79130
G1 X105.70 Y94.62 E15.79642
G1 X105.69 Y94.54 E15.79690
G1 X105.49 Y93.80 E15.80155
G1 X105.46 Y93.73 E15.80203
G1 X105.03 Y93.01 E15.80716
G1 X104.42 Y92.42 E15.81232
G1 X103.73 Y92.03 E15.81714
G1 X103.66 Y92.00 E15.81760
G1 X102.97 Y91.82 E15.82198
G1 X102.89 Y91.81 E15.82246
G1 X102.31 Y91.81 E15.82602
G1 X102.21 Y91.80 E15.82661
G1 X102.02 Y91.82 E15.82777
G1 X101.30 Y92.01 E15.83231
G1 X101.23 Y92.04 E15.83279
G1 X100.57 Y92.42 E15.83742
G1 X100.51 Y92.47 E15.83789
G1 X99.92 Y93.07 E15.84304
G1 X99.54 Y93.73 E15.84769
G1 X99.51 Y93.80 E15.84816
G1 X99.31 Y94.54 E15.85283
G1 X99.30 Y94.62 E15.85331
G1 X99.32 Y95.48 E15.85854
G1 X99.54 Y96.27 E15.86353
G1 X99.92 Y96.93 E15.86819
G1 X99.97 Y96.99 E15.86867
G1 X100.51 Y97.53 E15.87332
G1 X100.57 Y97.58 E15.87380
G0 F4620 X99.51 Y96.19
G0 X99.32 Y94.54
G0 X99.53 Y91.70
G1 F1980 X105.47 Y91.70 E15.91005
G1 X105.82 Y91.35 E15.91309
G1 X105.82 Y88.40 E15.93106
G1 X105.47 Y88.05 E15.93409
G1 X99.53 Y88.05 E15.97034
G1 X99.18 Y88.40 E15.97336
G1 X99.18 Y91.35 E15.99134
G1 X99.53 Y91.70 E15.99437
G0 F4620 X99.69 Y91.30
;TYPE:WALL-OUTER
G1 F1980 X105.31 Y91.30 E16.02859
G1 X105.42 Y91.18 E16.02961
G1 X105.42 Y88.57 E16.04556
G1 X105.31 Y88.45 E16.04657
G1 X99.69 Y88.45 E16.08080
G1 X99.58 Y88.57 E16.08181
G1 X99.58 Y91.18 E16.09775
G1 X99.69 Y91.30 E16.09877
G0 F4620 X99.69 Y91.60
G0 X100.61 Y92.52
G0 X100.80 Y92.75
G1 F1980 X100.78 Y92.77 E16.09892
G1 X100.25 Y93.29 E16.10342
G1 X99.90 Y93.91 E16.10775
G1 X99.89 Y93.93 E16.10791
G1 X99.70 Y94.65 E16.11241
G1 X99.71 Y95.40 E16.11701
G1 X99.89 Y96.07 E16.12121
G1 X99.90 Y96.09 E16.12137
G1 X100.27 Y96.72 E16.12585
G1 X100.79 Y97.24 E16.13035
G1 X101.41 Y97.60 E16.13468
G1 X101.43 Y97.61 E16.13484
G1 X102.15 Y97.80 E16.13933
G1 X102.90 Y97.79 E16.14393
G1 X103.57 Y97.61 E16.14814
G1 X103.59 Y97.60 E16.14829
G1 X104.22 Y97.23 E16.15278
G1 X104.74 Y96.71 E16.15727
G1 X105.10 Y96.09 E16.16160
G1 X105.11 Y96.07 E16.16176
G1 X105.30 Y95.35 E16.16625
G1 X105.29 Y94.62 E16.17073
G1 X105.11 Y93.93 E16.17506
G1 X105.10 Y93.91 E16.17522
G1 X104.73 Y93.27 E16.17971
G1 X104.22 Y92.77 E16.18406
G1 X103.54 Y92.38 E16.18886
G1 X102.87 Y92.21 E16.19309
G1 X102.30 Y92.21 E16.19653
G1 X102.22 Y92.20 E16.19705
G1 X102.10 Y92.21 E16.19775
G1 X101.43 Y92.39 E16.20198
G1 X101.41 Y92.40 E16.20214
G1 X100.80 Y92.75 E16.20646
G0 F4620 X100.61 Y92.52
G0 X99.19 Y91.34
G0 X96.87 Y87.66
G0 X96.69 Y87.43
G1 F1980 X98.85 Y86.18 E16.22167
G1 X101.25 Y85.53 E16.23687
G1 X103.77 Y85.54 E16.25224
G1 X106.15 Y86.18 E16.26726
G1 X108.31 Y87.43 E16.28247
G1 X110.07 Y89.19 E16.29765
G1 X111.32 Y91.35 E16.31286
G1 X111.97 Y93.75 E16.32806
G1 X111.97 Y96.25 E16.34325
G1 X111.32 Y98.65 E16.35845
G1 X110.07 Y100.81 E16.37366
G1 X108.31 Y102.57 E16.38884
G1 X106.15 Y103.82 E16.40405
G1 X103.75 Y104.47 E16.41925
G1 X101.25 Y104.47 E16.43445
G1 X98.85 Y103.82 E16.44965
G1 X96.69 Y102.57 E16.46486
G1 X94.93 Y100.81 E16.48003
G1 X93.68 Y98.65 E16.49524
G1 X93.03 Y96.25 E16.51044
G1 X93.03 Y93.75 E16.52564
